X:1
T:Title
%%score { ( 1 5 ) | ( 2 3 4 ) }
L:1/8
Q:1/4=87
M:6/8
K:G
V:1 treble nm="Grand Piano"
V:5 treble 
V:2 bass 
V:3 bass 
V:4 bass 
V:1
 [DB]>A[B,G] [Ec]2 [^DG] | [DB]3 [B,G]2 [B,G]/G/ | [CA]>^G[CA] [Fd]2 [Ec] | [DB]3- [DB] z [B,D] | %4
w: Adam~Geibel * * * *||||
 [DB]2 [CA]/G/ [Ec][EG][^DA] | [DB]3 [B,G]2 [DB] | [FA]>G[DF] [^CA][CG][CE] | D6 | %8
w: ||||
 [CFA]>[B,=F^G][C^FA] [EFc][DFB][CFA] | G2- [Ge] d2 [Ad] | [^Gd]>[CGc][CGB] [=Fd]c[EGB] | %11
w: |||
 [EAc]3- [EAc][EAc][^DAc] | [DAc]>[DAc][DAc] [Fe][Gd]c |[M:7/8] B2 A G3 ^C | %14
w: |||
[M:3/4] D[Gd] [EGc] [DFB]2 [CFA][Q:1/4=86][Q:1/4=84][Q:1/4=83][Q:1/4=82][Q:1/4=80][Q:1/4=79][Q:1/4=77][Q:1/4=76][Q:1/4=75][Q:1/4=73][Q:1/4=72][Q:1/4=71][Q:1/4=69][Q:1/4=68][Q:1/4=67] | %15
w: |
 [B,DG]6 |] %16
w: |
V:2
 z z/ C/G, z G,G, | z3 z2 G, | z z/ B,/D, z D,D, | G,,B,,D, G,D,B,, | z .D,>B, z G,G, | %5
 z E,G, z D,G, | z z/ E/A, z A,G, | D,A,,F,, .D,,3 | D,>D,D, D,D,D, | z2 _B, [G,=B,G]2 [=F,B,] | %10
 [E,B,]>E,E, z EE, | A,3- A,A,G, | F,>F,F, [D,C][E,B,][F,A,D] |[M:7/8] [G,D]3 z z z2 | %14
[M:3/4] [D,G,B,][D,B,] D, D,2 D, | G,,6 |] %16
V:3
 z .D,2 z3 | z D,G, z .D,>B, | z .D,2 z3 | x6 | z2 G, z3 | G,,3 G,,3 | z .A,2 z3 | x6 | x6 | %9
 G,3 z3 | z3 .E,3 | x6 | x6 |[M:7/8] z2 A, [^D,_B,^C]3 [D,G,B,] |[M:3/4] x6 | x6 |] %16
V:4
 G,,3 G,,3 | G,,3 G,,3 | D,,3 D,,3 | x6 | G,,3 G,,3 | x6 | A,,3 A,,3 | x6 | x6 | x6 | x6 | x6 | %12
 x6 |[M:7/8] x7 |[M:3/4] x6 | x6 |] %16
V:5
 x6 | x6 | x6 | x6 | x6 | x6 | x6 | .F,3 z3 | x6 | .B,3 z3 | z3 .^G3 | x6 | x6 |[M:7/8] x7 | %14
[M:3/4] x6 | x6 |] %16

